/* XPM */
static char *httrack[] = {
/* columns rows colors chars-per-pixel */
"32 32 17 1 ",
"  c #060606",
". c #1C1C25",
"X c #292935",
"o c #3D3D50",
"O c #46465D",
"+ c #595976",
"@ c #727297",
"# c #7D7DA6",
"$ c #8E8EBD",
"% c #8686B3",
"& c #8686B3",
"* c #9999CC",
"= c #9A9ACD",
"- c #9A9ACE",
"; c #9B9BCF",
": c #9C9CD0",
"> c #9999CD",
/* pixels */
"********************************",
"********************************",
"********************************",
"********************************",
"********************************",
"********************************",
"********************************",
"***:::*******::***::::*;:::::***",
"**#+++$*****#+++$&+++++++++++#**",
"*:+   #*****O   %@           +:*",
"*:+   #*****+   %@           +:*",
"*:+   #*****+   %#XXX.   .XXX@**",
"*:+   #:***:+   #****@   +******",
"**+   @&&&&&O   #***:@   +******",
"*:+    .....    #****@   +******",
"*:+             #****@   +******",
"*;+             #***:@   +:*****",
"**+   +@@@@@o   #***:@   +:*****",
"**+   #:***:+   #:***@   +:*****",
"**+   #*****+   #****@   +:*****",
"*:+   #:****+   %****@   +:*****",
"*:+   #:****+   %:***@   +:*****",
"*:+   #****:O   #***:@   +:*****",
"**#+++$*****#+++$****%+++%******",
"***;::*******::*******:::*******",
"********************************",
"********************************",
"********************************",
"********************************",
"********************************",
"********************************",
"********************************"
};
