/* XPM */
static char *httrack16x16[] = {
/* columns rows colors chars-per-pixel */
"16 16 15 1 ",
"  c #0D0D10",
". c #191921",
"X c #2A2A38",
"o c #363647",
"O c #424257",
"+ c #53536E",
"@ c #717197",
"# c #7E7EA8",
"$ c #8585B1",
"% c #9898CB",
"& c #9999CC",
"* c #9A9ACE",
"= c #9696C9",
"- c #9C9CD0",
"; c #9999CC",
/* pixels */
"&&&&&&&&&%%&&&&&",
"&&&&&&&&%%%%&&&&",
"&&&&&&&&%%%%&&&&",
"&%%&&&%%%%%%%%%&",
"%+o$&%+o@ooooo+%",
"%o $-%X @X.  .O%",
"%o @$$X $=@ o$=&",
"%o  .   $-# o&&&",
"%o oOo. $-# o%&&",
"%o $-%X $-# o%&&",
"%X $&%X $-# o%&&",
"%+o$&%+o$&$o+%&&",
"%%%&&&%%&&&%%&&&",
"%%&&&&&&&&&&&&&&",
"%&&&&&&&&&&&&&&&",
"&&&&&&&&&&&&&&&&"
};
