/* XPM */
static char *httrack32x32[] = {
/* columns rows colors chars-per-pixel */
"32 32 13 1 ",
"  c #060607",
". c #1D1D25",
"X c #292935",
"o c #3D3D50",
"O c #46465D",
"+ c #595976",
"@ c #727297",
"# c #7D7DA6",
"$ c #8686B3",
"% c #8C8CBB",
"& c #8F8FBF",
"* c #9999CC",
"= c #9C9CCF",
/* pixels */
"********************************",
"********************************",
"********************************",
"********************************",
"********************************",
"********************************",
"********************************",
"***==********==****===**=====***",
"**#+++%*****#+++&$+++++++++++#**",
"*=+   #*****O   $@           +**",
"*=+   #*****O   $@           +**",
"**+   #*****O   $#XXX.   .XXX@**",
"**+   #****=+   #****@   +******",
"**+   @$$$$%O   #***=@   +******",
"**+    .....    #***=@   +******",
"**+             #****@   +******",
"**+             #***=@   +=*****",
"**+   +@@@@@o   #***=@   +=*****",
"**+   #=*===+   #***=@   +=*****",
"**+   #****=O   $***=@   +=*****",
"*=+   #*****O   #****@   +=*****",
"*=+   #*****O   #***=@   +=*****",
"**+   #****=O   #****@   +=*****",
"**#+++%*****#+++&****%+++$******",
"****=********==********==*******",
"********************************",
"********************************",
"********************************",
"********************************",
"********************************",
"********************************",
"********************************"
};
