/* XPM */
static char *httrack48x48[] = {
/* columns rows colors chars-per-pixel */
"48 48 12 1 ",
"  c #070708",
". c #1D1D26",
"X c #292935",
"o c #343445",
"O c #5A5A77",
"+ c #6E6E92",
"@ c #7B7BA4",
"# c #8484B0",
"$ c #9292C3",
"% c #9999CC",
"& c #9B9BCF",
"* c #9D9DD2",
/* pixels */
"%%%%%%%%%%%%%%%%%%%%%%%%%%%%%%%%%%%%%%%%%%%%%%%%",
"%%%%%%%%%%%%%%%%%%%%%%%%%%%%%%%%%%%%%%%%%%%%%%%%",
"%%%%%%%%%%%%%%%%%%%%%%%%%%%%%%%%%%%%%%%%%%%%%%%%",
"%%%%%%%%%%%%%%%%%%%%%%%%%%%%%%%%%%%%%%%%%%%%%%%%",
"%%%%%%%%%%%%%%%%%%%%%%%%%%%%%%%%%%%%%%%%%%%%%%%%",
"%%%%%%%%%%%%%%%%%%%%%%%%%%%%%%%%%%%%%%%%%%%%%%%%",
"%%%%%%%%%%%%%%%%%%%%%%%%%%%%%%%%%%%%%%%%%%%%%%%%",
"%%%%%%%%%%%%%%%%%%%%%%%%%%%%%%%%%%%%%%%%%%%%%%%%",
"%%%%%%%%%%%%%%%%%%%%%%%%%%%%%%%%%%%%%%%%%%%%%%%%",
"%%%%%%%%%%%%%%%%%%%%%%%%%%%%%%%%%%%%%%%%%%%%%%%%",
"%%%%%%%%%%%%%%%%%%%%%%%%%%%%%%%%%%%%%%%%%%%%%%%%",
"%%%%%%%%%%%%%%%%%%%%%%%%%%%%%%%%%%%%%%%%%%%%%%%%",
"%%%$@@@@@$%%%%%%%%$@@@@@$%#@@@@@@@@@@@@@@@@@$%%%",
"%%%@.   .@%%%%%%%%+    .@*O                .@%%%",
"%%%@     +%%%%%%%*+     @*O                 @%%%",
"%%%@     +%%%%%%%*+     @*O                 @%%%",
"%%%@     +%%%%%%%*+     @*O                 @%%%",
"%%%@     +%%%%%%%*+     @%+ooooo.     Xooooo#%%%",
"%%%@     +%%%%%%%%+     @%%%%%%%+     #%%%%%%%%%",
"%%%@     +*%%%%%%*+     @%%%%%%%+     #%%%%%%%%%",
"%%%@     +########+     @%%%%%%%+     #%%%%%%%%%",
"%%%@      ........      @%%%%%%%+     #%%%%%%%%%",
"%%%@                    @%%%%%%%+     #%%%%%%%%%",
"%%%@                    @%%%%%%%+     #%%%%%%%%%",
"%%%@                    @%%%%%%*+     #%%%%%%%%%",
"%%%@     .XXXXXXXX.     @%%%%%%*+     #%%%%%%%%%",
"%%%@     +%$$$$$$$+     @%%%%%%%+     #%%%%%%%%%",
"%%%@     +*%%%%%%%+     @%%%%%%%+     #%%%%%%%%%",
"%%%@     +%%%%%%%%+     @%%%%%%%+     #%%%%%%%%%",
"%%%@     +*%%%%%%%+     @%%%%%%%+     #%%%%%%%%%",
"%%%@     +%%%%%%%*+     @%%%%%%*+     #%%%%%%%%%",
"%%%@     +%%%%%%%*+     @%%%%%%*+     #%%%%%%%%%",
"%%%@     +*%%%%%%*+     @%%%%%%*+     #%%%%%%%%%",
"%%%@     +%%%%%%%*+     @%%%%%%*+     #%%%%%%%%%",
"%%%@.    @%%%%%%%%+    .@%%%%%%%+    .#%%%%%%%%%",
"%%%$@@@@@$%%%%%%%%$@@@@@$%%%%%%%#@@@@@$%%%%%%%%%",
"%%%%%%%%%%%%%%%%%%%%%%%%%%%%%%%%%%%%%%%%%%%%%%%%",
"%%%%%%%%%%%%%%%%%%%%%%%%%%%%%%%%%%%%%%%%%%%%%%%%",
"%%%%%%%%%%%%%%%%%%%%%%%%%%%%%%%%%%%%%%%%%%%%%%%%",
"%%%%%%%%%%%%%%%%%%%%%%%%%%%%%%%%%%%%%%%%%%%%%%%%",
"%%%%%%%%%%%%%%%%%%%%%%%%%%%%%%%%%%%%%%%%%%%%%%%%",
"%%%%%%%%%%%%%%%%%%%%%%%%%%%%%%%%%%%%%%%%%%%%%%%%",
"%%%%%%%%%%%%%%%%%%%%%%%%%%%%%%%%%%%%%%%%%%%%%%%%",
"%%%%%%%%%%%%%%%%%%%%%%%%%%%%%%%%%%%%%%%%%%%%%%%%",
"%%%%%%%%%%%%%%%%%%%%%%%%%%%%%%%%%%%%%%%%%%%%%%%%",
"%%%%%%%%%%%%%%%%%%%%%%%%%%%%%%%%%%%%%%%%%%%%%%%%",
"%%%%%%%%%%%%%%%%%%%%%%%%%%%%%%%%%%%%%%%%%%%%%%%%",
"%%%%%%%%%%%%%%%%%%%%%%%%%%%%%%%%%%%%%%%%%%%%%%%%"
};
